X: 39
M: C|
L: 1/8
K: D
f |\
|: d' |\
babd' {b}a2(gf) | geef geed' |\
babd' {b}a2(fe) | fdde fdd :|


